symbols/web/sd_card/materialsymbolsrounded/sd_card_wght600_20px.svg

<svg xmlns="http://www.w3.org/2000/svg" height="20" width="20"><path d="M8.229 9.333q.354 0 .615-.26.26-.261.26-.615V6.875q0-.354-.26-.615Q8.583 6 8.229 6t-.614.26q-.261.261-.261.615v1.583q0 .354.261.615.26.26.614.26Zm2.479 0q.354 0 .615-.26.26-.261.26-.615V6.875q0-.354-.26-.615-.261-.26-.615-.26t-.614.26q-.261.261-.261.615v1.583q0 .354.261.615.26.26.614.26Zm2.459 0q.354 0 .614-.26.261-.261.261-.615V6.875q0-.354-.261-.615-.26-.26-.614-.26-.355 0-.615.26-.26.261-.26.615v1.583q0 .354.26.615.26.26.615.26Zm-7.938 9.396q-.958 0-1.625-.667-.666-.666-.666-1.624V7.417q0-.459.177-.896.177-.438.51-.75l3.813-3.813q.312-.333.75-.51.437-.177.895-.177h5.688q.958 0 1.625.667.666.666.666 1.624v12.876q0 .958-.666 1.624-.667.667-1.625.667Zm0-2.291h9.542V3.562H9.125L5.229 7.458v8.98Zm0 0h9.542Z"/></svg>

<svg xmlns="http://www.w3.org/2000/svg" height="20" width="20"><path d="M8.229 9.333Q8.583 9.333 8.844 9.073Q9.104 8.812 9.104 8.458V6.875Q9.104 6.521 8.844 6.26Q8.583 6 8.229 6Q7.875 6 7.615 6.26Q7.354 6.521 7.354 6.875V8.458Q7.354 8.812 7.615 9.073Q7.875 9.333 8.229 9.333ZM10.708 9.333Q11.062 9.333 11.323 9.073Q11.583 8.812 11.583 8.458V6.875Q11.583 6.521 11.323 6.26Q11.062 6 10.708 6Q10.354 6 10.094 6.26Q9.833 6.521 9.833 6.875V8.458Q9.833 8.812 10.094 9.073Q10.354 9.333 10.708 9.333ZM13.167 9.333Q13.521 9.333 13.781 9.073Q14.042 8.812 14.042 8.458V6.875Q14.042 6.521 13.781 6.26Q13.521 6 13.167 6Q12.812 6 12.552 6.26Q12.292 6.521 12.292 6.875V8.458Q12.292 8.812 12.552 9.073Q12.812 9.333 13.167 9.333ZM5.229 18.729Q4.271 18.729 3.604 18.062Q2.938 17.396 2.938 16.438V7.417Q2.938 6.958 3.115 6.521Q3.292 6.083 3.625 5.771L7.438 1.958Q7.75 1.625 8.188 1.448Q8.625 1.271 9.083 1.271H14.771Q15.729 1.271 16.396 1.938Q17.062 2.604 17.062 3.562V16.438Q17.062 17.396 16.396 18.062Q15.729 18.729 14.771 18.729ZM5.229 16.438H14.771Q14.771 16.438 14.771 16.438Q14.771 16.438 14.771 16.438V3.562Q14.771 3.562 14.771 3.562Q14.771 3.562 14.771 3.562H9.125L5.229 7.458V16.438Q5.229 16.438 5.229 16.438Q5.229 16.438 5.229 16.438ZM5.229 16.438Q5.229 16.438 5.229 16.438Q5.229 16.438 5.229 16.438H9.125H14.771Q14.771 16.438 14.771 16.438Q14.771 16.438 14.771 16.438Q14.771 16.438 14.771 16.438Q14.771 16.438 14.771 16.438Z"/></svg>
